src/assets/delivery.svg

<svg xmlns="http://www.w3.org/2000/svg" fill="none" viewBox="0 0 24 24"><path fill="currentColor" d="M12 12H3v1.5h9V12ZM9 8.25H1.5v1.5H9v-1.5Z"/><path fill="currentColor" d="m22.4392 12.4548-2.25-5.25a.7489.7489 0 0 0-.2763-.33097A.7487.7487 0 0 0 19.5 6.75h-2.25v-1.5a.74983.74983 0 0 0-.2197-.53033A.74987.74987 0 0 0 16.5 4.5h-12V6h11.25v9.4172a2.99248 2.99248 0 0 0-.8799.7771 2.99347 2.99347 0 0 0-.5135 1.0557H9.64342a3.00036 3.00036 0 0 0-1.221-1.733 3.00005 3.00005 0 0 0-2.06175-.4931 2.99987 2.99987 0 0 0-1.87299.9929 3.00007 3.00007 0 0 0 0 3.9664 2.99987 2.99987 0 0 0 1.87299.9929 3.00005 3.00005 0 0 0 2.06175-.4931 3.00036 3.00036 0 0 0 1.221-1.733h4.71318a2.98497 2.98497 0 0 0 1.0608 1.6212c.524.4075 1.1688.6287 1.8326.6287s1.3086-.2212 1.8326-.6287c.524-.4074.8973-.9779 1.0608-1.6212H21.75c.1989 0 .3897-.079.5303-.2197A.74969.74969 0 0 0 22.5 18v-5.25c0-.1015-.0207-.202-.0608-.2952ZM6.75 19.5c-.29667 0-.58668-.088-.83335-.2528a1.49984 1.49984 0 0 1-.55247-.6732 1.49986 1.49986 0 0 1-.08536-.8666 1.5002 1.5002 0 0 1 .41052-.7681 1.50071 1.50071 0 0 1 .76802-.4105 1.49929 1.49929 0 0 1 .86667.0854c.27408.1135.50835.3058.67317.5524.16483.2467.2528.5367.2528.8334a1.50183 1.50183 0 0 1-.43984 1.0602A1.50191 1.50191 0 0 1 6.75 19.5Zm10.5-11.25h1.7556L20.6129 12H17.25V8.25Zm0 11.25c-.2967 0-.5867-.088-.8334-.2528a1.50002 1.50002 0 0 1-.5524-.6732 1.49913 1.49913 0 0 1-.0854-.8666c.0579-.291.2008-.5583.4105-.7681.2098-.2097.4771-.3526.7681-.4105.2909-.0579.5925-.0282.8666.0854.2741.1135.5084.3058.6732.5524.1648.2467.2528.5367.2528.8334-.0005.3977-.1586.779-.4398 1.0602A1.50213 1.50213 0 0 1 17.25 19.5ZM21 17.25h-.8566a2.99595 2.99595 0 0 0-1.0626-1.619A2.99679 2.99679 0 0 0 17.25 15v-1.5H21v3.75Z"/></svg>

<svg  viewBox="0 0 24 24" fill="none" xmlns="http://www.w3.org/2000/svg">

<path d="M12 12H3V13.5H12V12Z" fill="currentColor"/>
<path d="M9 8.25H1.5V9.75H9V8.25Z" fill="currentColor"/>
<path d="M22.4392 12.4548L20.1892 7.2048C20.1315 7.06979 20.0355 6.95469 19.9129 6.87383C19.7904 6.79297 19.6468 6.74991 19.5 6.75H17.25V5.25C17.25 5.05109 17.171 4.86032 17.0303 4.71967C16.8897 4.57902 16.6989 4.5 16.5 4.5H4.5V6H15.75V15.4172C15.4083 15.6156 15.1092 15.8797 14.8701 16.1943C14.6309 16.5089 14.4564 16.8677 14.3566 17.25H9.64342C9.46088 16.543 9.02675 15.9269 8.42242 15.517C7.81809 15.1072 7.08504 14.9319 6.36067 15.0239C5.63631 15.1159 4.97038 15.4689 4.48768 16.0168C4.00499 16.5647 3.73869 17.2698 3.73869 18C3.73869 18.7302 4.00499 19.4353 4.48768 19.9832C4.97038 20.5311 5.63631 20.8841 6.36067 20.9761C7.08504 21.0681 7.81809 20.8928 8.42242 20.483C9.02675 20.0731 9.46088 19.457 9.64342 18.75H14.3566C14.5201 19.3933 14.8934 19.9638 15.4174 20.3712C15.9414 20.7787 16.5862 20.9999 17.25 20.9999C17.9138 20.9999 18.5586 20.7787 19.0826 20.3712C19.6066 19.9638 19.9799 19.3933 20.1434 18.75H21.75C21.9489 18.75 22.1397 18.671 22.2803 18.5303C22.421 18.3897 22.5 18.1989 22.5 18V12.75C22.5 12.6485 22.4793 12.548 22.4392 12.4548ZM6.75 19.5C6.45333 19.5 6.16332 19.412 5.91665 19.2472C5.66997 19.0824 5.47771 18.8481 5.36418 18.574C5.25065 18.2999 5.22094 17.9983 5.27882 17.7074C5.3367 17.4164 5.47956 17.1491 5.68934 16.9393C5.89912 16.7296 6.16639 16.5867 6.45736 16.5288C6.74834 16.4709 7.04994 16.5006 7.32403 16.6142C7.59811 16.7277 7.83238 16.92 7.9972 17.1666C8.16203 17.4133 8.25 17.7033 8.25 18C8.24954 18.3977 8.09136 18.779 7.81016 19.0602C7.52895 19.3414 7.14768 19.4995 6.75 19.5ZM17.25 8.25H19.0056L20.6129 12H17.25V8.25ZM17.25 19.5C16.9533 19.5 16.6633 19.412 16.4166 19.2472C16.17 19.0824 15.9777 18.8481 15.8642 18.574C15.7506 18.2999 15.7209 17.9983 15.7788 17.7074C15.8367 17.4164 15.9796 17.1491 16.1893 16.9393C16.3991 16.7296 16.6664 16.5867 16.9574 16.5288C17.2483 16.4709 17.5499 16.5006 17.824 16.6142C18.0981 16.7277 18.3324 16.92 18.4972 17.1666C18.662 17.4133 18.75 17.7033 18.75 18C18.7495 18.3977 18.5914 18.779 18.3102 19.0602C18.0289 19.3414 17.6477 19.4995 17.25 19.5ZM21 17.25H20.1434C19.9782 16.6076 19.6045 16.0382 19.0808 15.631C18.5572 15.2239 17.9133 15.0019 17.25 15V13.5H21V17.25Z" fill="currentColor"/>
</svg>
